X: 29446
T: Night Heron, The
R: reel
M: 4/4
K: Gdorian
|:G3G G2FD|CDB,C DFFD|G3G G2FD|CDB,C DG,G,F|
G3G G2FD|CDB,C DFFD|G3G BGFD|CDB,C DG,G,F:|
GGGG BGGc|GGBG AGFD|GGG2 BGGc|GGcB cd3|
CCC2 BGGc|GGBG AGFD|G3G FD{_D/}CB,|CB,A,B, G,A,B,D|
G3G BGGc|GGBG AGFD|GGG2 BGGc|GGcB cd3|
CCC2 BGGc|GGBG AGFD|G3G FDCA,|B,2A,B, G,A,B,D||

